img/svg/maramax-logo.svg

<svg width="206" height="25" viewBox="0 0 206 25" fill="none" xmlns="http://www.w3.org/2000/svg">
<path d="M32.0405 0.0361328H40.2549L45.1604 6.77322L49.9634 0.0361328H58.2472V24.9999H50.0329V15.204L45.1274 22.0129L40.2913 15.1698V24.9999H32.0438V0.0361328H32.0405Z" fill="#1B3C65"/>
<path d="M56.1219 24.9999L65.9032 0.0361328H75.1952L84.9037 24.9999H74.8448L73.9754 22.0471H67.156L66.2503 24.9999H56.1219ZM68.9642 15.1663H72.0946L70.5641 9.32913L68.9642 15.1663Z" fill="#1B3C65"/>
<path d="M94.7874 24.9999L90.6818 19.4536V24.9999H82.398V0.0361328H94.1957C96.9095 0.0361328 99.2301 0.973645 101.157 2.84525C103.084 4.72027 104.046 6.97509 104.046 9.61654C104.046 12.282 103.084 14.5505 101.157 16.4255C100.694 16.8806 100.205 17.2775 99.6962 17.6128L104.916 24.9965H94.7874V24.9999ZM93.3593 12.1417C93.961 12.1417 94.4899 11.8953 94.9427 11.4026C95.3956 10.9099 95.6204 10.318 95.6204 9.61997C95.6204 8.92196 95.3956 8.33003 94.9427 7.83733C94.4899 7.34462 93.961 7.09827 93.3593 7.09827H90.6785V12.1417H93.3593Z" fill="#1B3C65"/>
<path d="M101.815 24.9999L111.593 0.0361328H120.885L130.593 24.9999H120.534L119.665 22.0471H112.845L111.94 24.9999H101.815ZM114.657 15.1663H117.787L116.257 9.32913L114.657 15.1663Z" fill="#1B3C65"/>
<path d="M128.471 0.0361328H136.685L141.594 6.77322L146.394 0.0361328H154.678V24.9999H146.463V15.204L141.558 22.0129L136.722 15.1698V24.9999H128.474V0.0361328H128.471Z" fill="#1B3C65"/>
<path d="M152.556 24.9999L162.334 0.0361328H171.626L181.334 24.9999H171.279L170.409 22.0471H163.586L162.681 24.9999H152.556ZM165.395 15.1663H168.525L166.995 9.32913L165.395 15.1663Z" fill="#1B3C65"/>
<path d="M192.124 19.9942L188.676 24.9999H178.478L187.073 12.607L178.478 0.0361328H188.431L192.12 5.33273L195.773 0.0361328H205.73L197.135 12.607L205.73 24.9999H195.532L192.124 19.9942Z" fill="#1B3C65"/>
<path d="M0 0V25H26V0H0ZM22.2938 21.4249H16.4674V14.4192L12.9864 19.2876L9.55486 14.3934V21.4249H3.70368V3.57512H9.53012L13.0111 8.39184L16.4179 3.57512H22.2938V21.4249Z" fill="#2E7CD3"/>
</svg>

<svg width="206" height="25" viewBox="0 0 206 25" fill="none" xmlns="http://www.w3.org/2000/svg"><path d="M32.04.036h8.215l4.905 6.737L49.963.036h8.284V25h-8.214v-9.796l-4.906 6.809-4.836-6.843V25h-8.247V.036h-.003z" fill="#1B3C65"/><path d="M56.122 25L65.903.036h9.292L84.904 25h-10.06l-.869-2.953h-6.819L66.25 25H56.122zm12.842-9.834h3.13l-1.53-5.837-1.6 5.837z" fill="#1B3C65"/><path d="M94.787 25l-4.105-5.546V25h-8.284V.036h11.798c2.713 0 5.034.938 6.961 2.81 1.927 1.874 2.889 4.13 2.889 6.77 0 2.666-.962 4.934-2.889 6.81a9.714 9.714 0 01-1.46 1.187l5.219 7.384H94.787V25zM93.36 12.142c.602 0 1.13-.247 1.584-.74.453-.492.677-1.084.677-1.782s-.224-1.29-.677-1.783c-.453-.492-.982-.739-1.584-.739h-2.68v5.044h2.68z" fill="#1B3C65"/><path d="M101.815 25L111.593.036h9.292L130.593 25h-10.059l-.869-2.953h-6.82L111.94 25h-10.125zm12.842-9.834h3.13l-1.53-5.837-1.6 5.837z" fill="#1B3C65"/><path d="M128.471.036h8.214l4.909 6.737 4.8-6.737h8.284V25h-8.215v-9.796l-4.905 6.809-4.836-6.843V25h-8.248V.036h-.003z" fill="#1B3C65"/><path d="M152.556 25L162.334.036h9.292L181.334 25h-10.055l-.87-2.953h-6.823L162.681 25h-10.125zm12.839-9.834h3.13l-1.53-5.837-1.6 5.837z" fill="#1B3C65"/><path d="M192.124 19.994L188.676 25h-10.198l8.595-12.393-8.595-12.57h9.953l3.689 5.296 3.653-5.297h9.957l-8.595 12.571L205.73 25h-10.198l-3.408-5.006z" fill="#1B3C65"/><path d="M0 0v25h26V0H0zm22.294 21.425h-5.827v-7.006l-3.48 4.869-3.432-4.895v7.032H3.704V3.575H9.53l3.481 4.817 3.407-4.817h5.876v17.85z" fill="#2E7CD3"/></svg>
